;FLAVOR:Marlin
;TIME:20175
;Filament used: 29.3736m
;Layer height: 0.28
;MINX:75.335
;MINY:24.335
;MINZ:0.2
;MAXX:144.665
;MAXY:195.665
;MAXZ:43.88
;Generated with Cura_SteamEngine 4.5.0
M140 S50
M105
M190 S50
M104 S200
M105
M109 S200
M82 ;absolute extrusion mode
M201 X500.00 Y500.00 Z100.00 E5000.00 ;Setup machine max acceleration
M203 X500.00 Y500.00 Z10.00 E50.00 ;Setup machine max feedrate
M204 P500.00 R1000.00 T500.00 ;Setup Print/Retract/Travel acceleration
M205 X8.00 Y8.00 Z0.40 E5.00 ;Setup Jerk
M220 S100 ;Reset Feedrate
M221 S100 ;Reset Flowrate

G28 ;Home

G92 E0 ;Reset Extruder
G1 Z2.0 F3000 ;Move Z Axis up
G1 X10.1 Y20 Z0.28 F5000.0 ;Move to start position
G1 X10.1 Y200.0 Z0.28 F1500.0 E15 ;Draw the first line
G1 X10.4 Y200.0 Z0.28 F5000.0 ;Move to side a little
G1 X10.4 Y20 Z0.28 F1500.0 E30 ;Draw the second line
G92 E0 ;Reset Extruder
G1 Z2.0 F3000 ;Move Z Axis up

G92 E0
G92 E0
G1 F2700 E-5
;LAYER_COUNT:157
;LAYER:0
M107
;MESH:Stand_Electronics_Back.stl
G0 F6000 X121.777 Y180.58 Z0.2
;TYPE:WALL-INNER
G1 F2700 E0
G1 F1200 X123.028 Y180.927 E0.04318
G1 X124.326 Y180.998 E0.08642
G1 X125.608 Y180.788 E0.12962
G1 X126.814 Y180.306 E0.17282
G1 X127.889 Y179.578 E0.216
G1 X128.78 Y178.635 E0.25915
G1 X129.451 Y177.521 E0.30241
G1 X129.865 Y176.29 E0.3456
G1 X130.005 Y175 E0.38876
G1 X129.865 Y173.71 E0.43192
G1 X129.451 Y172.479 E0.47511
G1 X128.78 Y171.365 E0.51837
G1 X127.889 Y170.422 E0.56152
G1 X126.814 Y169.694 E0.6047
G1 X125.608 Y169.212 E0.6479
G1 X124.326 Y169.002 E0.69111
G1 X123.028 Y169.073 E0.73434
G1 X121.777 Y169.42 E0.77752
G1 X120.629 Y170.029 E0.82074
G1 X119.64 Y170.869 E0.8639
G1 X118.854 Y171.904 E0.90713
G1 X118.309 Y173.081 E0.95027
G1 X118.029 Y174.349 E0.99346
G1 X118.029 Y175.651 E1.03676
G1 X118.309 Y176.918 E1.07992
G1 X118.854 Y178.098 E1.12315
G1 X119.64 Y179.13 E1.1663
G1 X120.629 Y179.97 E1.20945
G1 X121.777 Y180.58 E1.25269
G0 F6000 X121.926 Y180.206
G1 F1200 X123.093 Y180.53 E1.29297
G1 X124.304 Y180.596 E1.33331
G1 X125.5 Y180.4 E1.37362
G1 X126.625 Y179.951 E1.41391
G1 X127.628 Y179.271 E1.45421
G1 X128.46 Y178.392 E1.49447
G1 X129.086 Y177.352 E1.53484
G1 X129.472 Y176.204 E1.57513
G1 X129.603 Y175 E1.61541
G1 X129.472 Y173.796 E1.65569
G1 X129.086 Y172.648 E1.69597
G1 X128.46 Y171.608 E1.73635
G1 X127.628 Y170.729 E1.7766
G1 X126.625 Y170.049 E1.8169
G1 X125.5 Y169.6 E1.85719
G1 X124.304 Y169.404 E1.8975
G1 X123.093 Y169.47 E1.93784
G1 X121.926 Y169.794 E1.97812
G1 X120.855 Y170.362 E2.01844
G1 X119.932 Y171.146 E2.05872
G1 X119.199 Y172.111 E2.09903
G1 X118.69 Y173.21 E2.13931
G1 X118.429 Y174.393 E2.1796
G1 X118.429 Y175.607 E2.21998
G1 X118.69 Y176.789 E2.26024
G1 X119.199 Y177.89 E2.30059
G1 X119.932 Y178.853 E2.34084
G1 X120.855 Y179.637 E2.38112
G1 X121.926 Y180.206 E2.42145
G0 F6000 X122.075 Y179.832
;TYPE:WALL-OUTER
G1 F1200 X123.158 Y180.133 E2.45884
G1 X124.282 Y180.194 E2.49628
G1 X125.392 Y180.012 E2.53369
G1 X126.436 Y179.596 E2.57107
G1 X127.367 Y178.964 E2.6085
G1 X128.14 Y178.148 E2.64588
G1 X128.721 Y177.183 E2.68334
G1 X129.079 Y176.118 E2.72071
G1 X129.201 Y175 E2.75812
G1 X129.079 Y173.882 E2.79553
G1 X128.721 Y172.817 E2.8329
G1 X128.14 Y171.852 E2.87036
G1 X127.367 Y171.036 E2.90774
G1 X126.436 Y170.404 E2.94517
G1 X125.392 Y169.988 E2.98255
G1 X124.282 Y169.806 E3.01996
G1 X123.158 Y169.867 E3.0574
G1 X122.075 Y170.168 E3.09479
G1 X121.081 Y170.695 E3.13221
G1 X120.224 Y171.423 E3.16961
G1 X119.544 Y172.318 E3.20699
G1 X119.071 Y173.339 E3.24442
G1 X118.829 Y174.437 E3.28181
G1 X118.829 Y175.563 E3.31926
G1 X119.071 Y176.66 E3.35663
G1 X119.544 Y177.682 E3.39408
G1 X120.224 Y178.576 E3.43144
G1 X121.081 Y179.304 E3.46884
G1 X122.075 Y179.832 E3.50628
G0 F6000 X121.912 Y180.24
G1 F2700 E-1.49372
G0 F6000 X120.049 Y178.741
G0 X119.338 Y177.806
G0 X118.843 Y176.736
G0 X118.59 Y175.589
G0 X118.59 Y174.411
G0 X118.843 Y173.263
G0 X119.338 Y172.194
G0 X120.049 Y171.258
G0 X120.946 Y170.495
G0 X121.987 Y169.944
G0 X122.307 Y169.856
G0 X123.463 Y168.84
G0 X123.564 Y170.71
G0 X123.986 Y159.312
G0 X123.887 Y161.166
G0 X123.028 Y160.927
;TYPE:WALL-INNER
G1 F2700 E3.50628
G1 F1200 X124.326 Y160.998 E3.54951
G1 X125.608 Y160.788 E3.59272
G1 X126.814 Y160.306 E3.63592
G1 X127.889 Y159.578 E3.6791
G1 X128.78 Y158.635 E3.72225
G1 X129.451 Y157.521 E3.7655
G1 X129.865 Y156.29 E3.8087
G1 X130.005 Y155 E3.85186
G1 X129.865 Y153.71 E3.89502
G1 X129.451 Y152.479 E3.93821
G1 X128.78 Y151.365 E3.98147
G1 X127.889 Y150.422 E4.02462
G1 X126.814 Y149.694 E4.0678
G1 X125.608 Y149.212 E4.111
G1 X124.326 Y149.002 E4.1542
G1 X123.028 Y149.073 E4.19744
G1 X121.777 Y149.42 E4.24062
G1 X120.629 Y150.029 E4.28384
G1 X119.64 Y150.869 E4.327
G1 X118.854 Y151.904 E4.37022
G1 X118.309 Y153.081 E4.41337
G1 X118.029 Y154.349 E4.45655
G1 X118.029 Y155.651 E4.49986
G1 X118.309 Y156.919 E4.54305
G1 X118.854 Y158.098 E4.58625
G1 X119.64 Y159.13 E4.6294
G1 X120.629 Y159.97 E4.67255
G1 X121.777 Y160.58 E4.71579
G1 X123.028 Y160.927 E4.75897
G0 F6000 X123.093 Y160.53
G1 F1200 X124.304 Y160.596 E4.79931
G1 X125.5 Y160.4 E4.83962
G1 X126.625 Y159.951 E4.87991
G1 X127.628 Y159.271 E4.92021
G1 X128.46 Y158.392 E4.96047
G1 X129.086 Y157.352 E5.00084
G1 X129.472 Y156.204 E5.04112
G1 X129.603 Y155 E5.0814
G1 X129.472 Y153.796 E5.12169
G1 X129.086 Y152.648 E5.16197
G1 X128.46 Y151.608 E5.20234
G1 X127.628 Y150.729 E5.2426
G1 X126.625 Y150.049 E5.2829
G1 X125.5 Y149.6 E5.32319
G1 X124.304 Y149.404 E5.3635
G1 X123.093 Y149.47 E5.40384
G1 X121.926 Y149.794 E5.44412
G1 X120.855 Y150.362 E5.48444
G1 X119.932 Y151.146 E5.52472
G1 X119.199 Y152.111 E5.56503
G1 X118.69 Y153.21 E5.60531
G1 X118.429 Y154.393 E5.6456
G1 X118.429 Y155.607 E5.68598
G1 X118.69 Y156.79 E5.72627
G1 X119.199 Y157.89 E5.76659
G1 X119.932 Y158.853 E5.80684
G1 X120.855 Y159.637 E5.84712
G1 X121.926 Y160.206 E5.88745
G1 X123.093 Y160.53 E5.92774
G0 F6000 X123.158 Y160.133
;TYPE:WALL-OUTER
G1 F1200 X124.282 Y160.194 E5.96518
G1 X125.392 Y160.012 E6.00259
G1 X126.436 Y159.596 E6.03997
G1 X127.367 Y158.964 E6.07739
G1 X128.14 Y158.148 E6.11478
G1 X128.721 Y157.183 E6.15224
G1 X129.079 Y156.118 E6.18961
G1 X129.201 Y155 E6.22702
G1 X129.079 Y153.882 E6.26442
G1 X128.721 Y152.817 E6.30179
G1 X128.14 Y151.852 E6.33926
G1 X127.367 Y151.036 E6.37664
G1 X126.436 Y150.404 E6.41407
G1 X125.392 Y149.988 E6.45144
G1 X124.282 Y149.806 E6.48886
G1 X123.158 Y149.867 E6.5263
G1 X122.075 Y150.168 E6.56368
G1 X121.081 Y150.695 E6.6011
G1 X120.224 Y151.423 E6.6385
G1 X119.544 Y152.318 E6.67589
G1 X119.071 Y153.339 E6.71331
G1 X118.829 Y154.437 E6.75071
G1 X118.829 Y155.563 E6.78816
G1 X119.071 Y156.661 E6.82556
G1 X119.544 Y157.682 E6.86298
G1 X120.224 Y158.576 E6.90034
G1 X121.081 Y159.304 E6.93774
G1 X122.075 Y159.832 E6.97518
G1 X123.158 Y160.133 E7.01256
G0 F6000 X123.087 Y160.567
G1 F2700 E2.01256
G0 F6000 X120.946 Y159.503
G0 X120.049 Y158.741
G0 X119.338 Y157.806
G0 X118.843 Y156.737
G0 X118.59 Y155.589
G0 X118.59 Y154.411
G0 X118.843 Y153.263
G0 X119.338 Y152.194
G0 X120.049 Y151.258
G0 X120.946 Y150.495
G0 X121.987 Y149.944
G0 X123.119 Y149.629
G0 X123.405 Y149.612
G0 X123.463 Y148.84
G0 X123.564 Y150.71
G0 X123.986 Y139.312
G0 X123.887 Y141.166
G0 X123.028 Y140.927
;TYPE:WALL-INNER
G1 F2700 E7.01256
G1 F1200 X124.326 Y140.998 E7.0558
G1 X125.608 Y140.788 E7.09901
G1 X126.814 Y140.306 E7.1422
G1 X127.889 Y139.578 E7.18538
G1 X128.78 Y138.635 E7.22853
G1 X129.451 Y137.521 E7.27179
G1 X129.865 Y136.29 E7.31499
G1 X130.005 Y135 E7.35814
G1 X129.865 Y133.71 E7.4013
G1 X129.451 Y132.479 E7.4445
G1 X128.78 Y131.365 E7.48775
G1 X127.889 Y130.422 E7.5309
G1 X126.814 Y129.694 E7.57408
G1 X125.608 Y129.212 E7.61728
G1 X124.326 Y129.002 E7.66049
G1 X123.028 Y129.073 E7.70372
G1 X121.777 Y129.42 E7.7469
G1 X120.629 Y130.029 E7.79013
G1 X119.64 Y130.869 E7.83328
G1 X118.854 Y131.904 E7.87651
G1 X118.309 Y133.081 E7.91965
G1 X118.029 Y134.349 E7.96284
G1 X118.029 Y135.651 E8.00614
G1 X118.309 Y136.919 E8.04933
G1 X118.854 Y138.098 E8.09253
G1 X119.64 Y139.13 E8.13568
G1 X120.629 Y139.97 E8.17884
G1 X121.777 Y140.58 E8.22208
G1 X123.028 Y140.927 E8.26526
G0 F6000 X123.093 Y140.53
G1 F1200 X124.304 Y140.596 E8.30559
G1 X125.5 Y140.4 E8.3459
G1 X126.625 Y139.951 E8.38619
G1 X127.628 Y139.271 E8.4265
G1 X128.46 Y138.392 E8.46675
G1 X129.086 Y137.352 E8.50712
G1 X129.472 Y136.204 E8.54741
G1 X129.603 Y135 E8.58769
G1 X129.472 Y133.796 E8.62797
G1 X129.086 Y132.648 E8.66825
G1 X128.46 Y131.608 E8.70863
G1 X127.628 Y130.729 E8.74888
G1 X126.625 Y130.049 E8.78919
G1 X125.5 Y129.6 E8.82947
G1 X124.304 Y129.404 E8.86978
G1 X123.093 Y129.47 E8.91012
G1 X121.926 Y129.794 E8.9504
G1 X120.855 Y130.362 E8.99073
G1 X119.932 Y131.146 E9.031
G1 X119.199 Y132.111 E9.07131
G1 X118.69 Y133.21 E9.11159
G1 X118.429 Y134.393 E9.15189
G1 X118.429 Y135.607 E9.19226
G1 X118.69 Y136.79 E9.23256
G1 X119.199 Y137.89 E9.27287
G1 X119.932 Y138.853 E9.31312
G1 X120.855 Y139.637 E9.3534
G1 X121.926 Y140.206 E9.39374
G1 X123.093 Y140.53 E9.43402
G0 F6000 X123.158 Y140.133
;TYPE:WALL-OUTER
G1 F1200 X124.282 Y140.194 E9.47146
G1 X125.392 Y140.012 E9.50887
G1 X126.436 Y139.596 E9.54625
G1 X127.367 Y138.964 E9.58368
G1 X128.14 Y138.148 E9.62106
G1 X128.721 Y137.183 E9.65852
G1 X129.079 Y136.118 E9.69589
G1 X129.201 Y135 E9.7333
G1 X129.079 Y133.882 E9.77071
G1 X128.721 Y132.817 E9.80808
G1 X128.14 Y131.852 E9.84554
G1 X127.367 Y131.036 E9.88292
G1 X126.436 Y130.404 E9.92035
G1 X125.392 Y129.988 E9.95773
G1 X124.282 Y129.806 E9.99514
G1 X123.158 Y129.867 E10.03258
G1 X122.075 Y130.168 E10.06997
G1 X121.081 Y130.695 E10.10739
G1 X120.224 Y131.423 E10.14479
G1 X119.544 Y132.318 E10.18217
G1 X119.071 Y133.339 E10.2196
G1 X118.829 Y134.437 E10.25699
G1 X118.829 Y135.563 E10.29444
G1 X119.071 Y136.661 E10.33184
G1 X119.544 Y137.682 E10.36927
G1 X120.224 Y138.576 E10.40662
G1 X121.081 Y139.304 E10.44402
G1 X122.075 Y139.832 E10.48146
G1 X123.158 Y140.133 E10.51885
G0 F6000 X123.087 Y140.567
G1 F2700 E5.51885
G0 F6000 X120.946 Y139.503
G0 X120.049 Y138.741
G0 X119.338 Y137.806
G0 X118.843 Y136.737
G0 X118.59 Y135.589
G0 X118.59 Y134.411
G0 X118.843 Y133.263
G0 X119.338 Y132.194
G0 X120.049 Y131.258
G0 X120.775 Y130.641
G0 X123.463 Y128.84
G0 X123.564 Y130.71
G0 X123.986 Y119.312
G0 X123.887 Y121.166
G0 X123.028 Y120.927
;TYPE:WALL-INNER
G1 F2700 E10.51885
G1 F1200 X124.326 Y120.998 E10.56208
G1 X125.608 Y120.788 E10.60529
G1 X126.814 Y120.306 E10.64849
G1 X127.889 Y119.578 E10.69167
G1 X128.78 Y118.635 E10.73482
G1 X129.451 Y117.521 E10.77807
G1 X129.865 Y116.29 E10.82127
G1 X130.005 Y115 E10.86443
G1 X129.865 Y113.71 E10.90758
G1 X129.451 Y112.479 E10.95078
G1 X128.78 Y111.365 E10.99404
G1 X127.889 Y110.422 E11.03719
G1 X126.814 Y109.694 E11.08037
G1 X125.608 Y109.212 E11.12356
G1 X124.326 Y109.002 E11.16677
G1 X123.028 Y109.073 E11.21001
G1 X121.777 Y109.42 E11.25319
G1 X120.629 Y110.029 E11.29641
G1 X119.64 Y110.869 E11.33957
G1 X118.854 Y111.904 E11.38279
G1 X118.309 Y113.081 E11.42593
G1 X118.029 Y114.349 E11.46912
G1 X118.029 Y115.651 E11.51243
G1 X118.309 Y116.919 E11.55562
G1 X118.854 Y118.098 E11.59882
G1 X119.64 Y119.13 E11.64196
G1 X120.629 Y119.97 E11.68512
G1 X121.777 Y120.58 E11.72836
G1 X123.028 Y120.927 E11.77154
G0 F6000 X123.093 Y120.53
G1 F1200 X124.304 Y120.596 E11.81188
G1 X125.5 Y120.4 E11.85219
G1 X126.625 Y119.951 E11.89248
G1 X127.628 Y119.271 E11.93278
G1 X128.46 Y118.392 E11.97303
G1 X129.086 Y117.352 E12.01341
G1 X129.472 Y116.204 E12.05369
G1 X129.603 Y115 E12.09397
G1 X129.472 Y113.796 E12.13425
G1 X129.086 Y112.648 E12.17454
G1 X128.46 Y111.608 E12.21491
G1 X127.628 Y110.729 E12.25517
G1 X126.625 Y110.049 E12.29547
G1 X125.5 Y109.6 E12.33576
G1 X124.304 Y109.404 E12.37607
G1 X123.093 Y109.47 E12.41641
G1 X121.926 Y109.794 E12.45669
G1 X120.855 Y110.362 E12.49701
G1 X119.932 Y111.146 E12.53729
G1 X119.199 Y112.111 E12.57759
G1 X118.69 Y113.21 E12.61788
G1 X118.429 Y114.393 E12.65817
G1 X118.429 Y115.607 E12.69855
G1 X118.69 Y116.79 E12.73884
G1 X119.199 Y117.89 E12.77915
G1 X119.932 Y118.853 E12.81941
G1 X120.855 Y119.637 E12.85969
G1 X121.926 Y120.206 E12.90002
G1 X123.093 Y120.53 E12.9403
G0 F6000 X123.158 Y120.133
;TYPE:WALL-OUTER
G1 F1200 X124.282 Y120.194 E12.97774
G1 X125.392 Y120.012 E13.01516
G1 X126.436 Y119.596 E13.05253
G1 X127.367 Y118.964 E13.08996
G1 X128.14 Y118.148 E13.12734
G1 X128.721 Y117.183 E13.16481
G1 X129.079 Y116.118 E13.20218
G1 X129.201 Y115 E13.23958
G1 X129.079 Y113.882 E13.27699
G1 X128.721 Y112.817 E13.31436
G1 X128.14 Y111.852 E13.35182
G1 X127.367 Y111.036 E13.38921
G1 X126.436 Y110.404 E13.42663
G1 X125.392 Y109.988 E13.46401
G1 X124.282 Y109.806 E13.50143
G1 X123.158 Y109.867 E13.53886
G1 X122.075 Y110.168 E13.57625
G1 X121.081 Y110.695 E13.61367
G1 X120.224 Y111.423 E13.65107
G1 X119.544 Y112.318 E13.68846
G1 X119.071 Y113.339 E13.72588
G1 X118.829 Y114.437 E13.76328
G1 X118.829 Y115.563 E13.80073
G1 X119.071 Y116.661 E13.83812
G1 X119.544 Y117.682 E13.87555
G1 X120.224 Y118.576 E13.91291
G1 X121.081 Y119.304 E13.95031
G1 X122.075 Y119.832 E13.98774
G1 X123.158 Y120.133 E14.02513
G0 F6000 X123.087 Y120.567
G1 F2700 E9.02513
G0 F6000 X120.946 Y119.503
G0 X120.049 Y118.741
G0 X119.338 Y117.806
G0 X118.843 Y116.737
G0 X118.59 Y115.589
G0 X118.59 Y114.411
G0 X118.843 Y113.263
G0 X119.338 Y112.194
G0 X120.049 Y111.258
G0 X120.775 Y110.641
G0 X123.463 Y108.84
G0 X123.564 Y110.71
G0 X123.986 Y99.312
G0 X123.887 Y101.166
G0 X123.028 Y100.927
;TYPE:WALL-INNER
G1 F2700 E14.02513
G1 F1200 X124.326 Y100.998 E14.06837
G1 X125.608 Y100.788 E14.11157
G1 X126.814 Y100.306 E14.15477
G1 X127.889 Y99.578 E14.19795
G1 X128.78 Y98.635 E14.2411
G1 X129.451 Y97.521 E14.28436
G1 X129.865 Y96.29 E14.32755
G1 X130.005 Y95 E14.37071
G1 X129.865 Y93.71 E14.41387
G1 X129.451 Y92.479 E14.45707
G1 X128.78 Y91.365 E14.50032
G1 X127.889 Y90.422 E14.54347
G1 X126.814 Y89.694 E14.58665
G1 X125.608 Y89.212 E14.62985
G1 X124.326 Y89.002 E14.67306
G1 X123.028 Y89.073 E14.71629
G1 X121.777 Y89.42 E14.75947
G1 X120.629 Y90.03 E14.80271
G1 X119.64 Y90.87 E14.84587
G1 X118.854 Y91.902 E14.88901
G1 X118.309 Y93.081 E14.93221
G1 X118.029 Y94.349 E14.9754
G1 X118.029 Y95.651 E15.01871
G1 X118.309 Y96.919 E15.0619
G1 X118.854 Y98.098 E15.1051
G1 X119.64 Y99.13 E15.14825
G1 X120.629 Y99.97 E15.1914
G1 X121.777 Y100.58 E15.23464
G1 X123.028 Y100.927 E15.27782
G0 F6000 X123.093 Y100.53
G1 F1200 X124.304 Y100.596 E15.31816
G1 X125.5 Y100.4 E15.35847
G1 X126.625 Y99.951 E15.39876
G1 X127.628 Y99.271 E15.43906
G1 X128.46 Y98.392 E15.47932
G1 X129.086 Y97.352 E15.51969
G1 X129.472 Y96.204 E15.55997
G1 X129.603 Y95 E15.60025
G1 X129.472 Y93.796 E15.64054
G1 X129.086 Y92.648 E15.68082
G1 X128.46 Y91.608 E15.72119
G1 X127.628 Y90.729 E15.76145
G1 X126.625 Y90.049 E15.80175
G1 X125.5 Y89.6 E15.84204
G1 X124.304 Y89.404 E15.88235
G1 X123.093 Y89.47 E15.92269
G1 X121.926 Y89.794 E15.96297
G1 X120.855 Y90.363 E16.00331
G1 X119.932 Y91.147 E16.04358
G1 X119.199 Y92.11 E16.08384
G1 X118.69 Y93.21 E16.12415
G1 X118.429 Y94.393 E16.16444
G1 X118.429 Y95.607 E16.20482
G1 X118.69 Y96.79 E16.24511
G1 X119.199 Y97.89 E16.28543
G1 X119.932 Y98.853 E16.32568
G1 X120.855 Y99.637 E16.36596
G1 X121.926 Y100.206 E16.4063
G1 X123.093 Y100.53 E16.44658
G0 F6000 X123.158 Y100.133
;TYPE:WALL-OUTER
G1 F1200 X124.282 Y100.194 E16.48402
G1 X125.392 Y100.012 E16.52143
G1 X126.436 Y99.596 E16.55881
G1 X127.367 Y98.964 E16.59623
G1 X128.14 Y98.148 E16.63362
G1 X128.721 Y97.183 E16.67108
G1 X129.079 Y96.118 E16.70845
G1 X129.201 Y95 E16.74586
G1 X129.079 Y93.882 E16.78326
G1 X128.721 Y92.817 E16.82063
G1 X128.14 Y91.852 E16.8581
G1 X127.367 Y91.036 E16.89548
G1 X126.436 Y90.404 E16.93291
G1 X125.392 Y89.988 E16.97029
G1 X124.282 Y89.806 E17.0077
G1 X123.158 Y89.867 E17.04514
G1 X122.075 Y90.168 E17.08252
G1 X121.081 Y90.696 E17.11996
G1 X120.224 Y91.424 E17.15736
G1 X119.544 Y92.318 E17.19472
G1 X119.071 Y93.339 E17.23214
G1 X118.829 Y94.437 E17.26954
G1 X118.829 Y95.563 E17.30699
G1 X119.071 Y96.661 E17.34439
G1 X119.544 Y97.682 E17.38181
G1 X120.224 Y98.576 E17.41917
G1 X121.081 Y99.304 E17.45657
