;FLAVOR:Marlin
;TIME:20703
;Filament used: 20.5687m
;Layer height: 0.2
;MINX:24.335
;MINY:76.2
;MINZ:0.2
;MAXX:195.665
;MAXY:144.665
;MAXZ:34
;Generated with Cura_SteamEngine 4.5.0
M140 S50
M105
M190 S50
M104 S200
M105
M109 S200
M82 ;absolute extrusion mode
M201 X500.00 Y500.00 Z100.00 E5000.00 ;Setup machine max acceleration
M203 X500.00 Y500.00 Z10.00 E50.00 ;Setup machine max feedrate
M204 P500.00 R1000.00 T500.00 ;Setup Print/Retract/Travel acceleration
M205 X8.00 Y8.00 Z0.40 E5.00 ;Setup Jerk
M220 S100 ;Reset Feedrate
M221 S100 ;Reset Flowrate

G28 ;Home

G92 E0 ;Reset Extruder
G1 Z2.0 F3000 ;Move Z Axis up
G1 X10.1 Y20 Z0.28 F5000.0 ;Move to start position
G1 X10.1 Y200.0 Z0.28 F1500.0 E15 ;Draw the first line
G1 X10.4 Y200.0 Z0.28 F5000.0 ;Move to side a little
G1 X10.4 Y20 Z0.28 F1500.0 E30 ;Draw the second line
G92 E0 ;Reset Extruder
G1 Z2.0 F3000 ;Move Z Axis up

G92 E0
G92 E0
G1 F2700 E-5
;LAYER_COUNT:170
;LAYER:0
M107
;MESH:Stand_Electronics_Front.stl
G0 F6000 X146.033 Y136.8 Z0.2
;TYPE:WALL-INNER
G1 F2700 E0
G1 F1200 X146.033 Y83.2 E1.78274
G1 X73.134 Y83.2 E4.20737
G1 X73.134 Y136.8 E5.99012
G1 X146.033 Y136.8 E8.41475
G0 F6000 X145.633 Y136.4
G1 F1200 X145.633 Y83.6 E10.17088
G1 X73.534 Y83.6 E12.56891
G1 X73.534 Y136.4 E14.32504
G1 X145.633 Y136.4 E16.72306
G0 F6000 X145.233 Y136
;TYPE:WALL-OUTER
G1 F1200 X145.233 Y84 E18.45259
G1 X73.934 Y84 E20.824
G1 X73.934 Y136 E22.55353
G1 X145.233 Y136 E24.92495
G1 F2700 E19.92495
G0 F6000 X145.533 Y136
G0 X145.469 Y136.205
G0 X137.695 Y136.97
G0 X137.695 Y135.135
G0 X72.938 Y144.665
G0 X72.938 Y142.79
G0 X26 Y143
;TYPE:WALL-INNER
G1 F2700 E24.92495
G1 F1200 X26 Y77 E27.12011
G1 X194 Y77 E32.70782
G1 X194 Y143 E34.90299
G1 X26 Y143 E40.49069
G0 F6000 X25.6 Y143.4
G1 F1200 X25.6 Y76.6 E42.71247
G1 X194.4 Y76.6 E48.32678
G1 X194.4 Y143.4 E50.54855
G1 X25.6 Y143.4 E56.16286
G0 F6000 X25.2 Y143.8
;TYPE:WALL-OUTER
G1 F1200 X25.2 Y76.2 E58.41125
G1 X194.8 Y76.2 E64.05217
G1 X194.8 Y143.8 E66.30055
G1 X25.2 Y143.8 E71.94147
G0 F6000 X25.47 Y143.53
G0 X26.11 Y142.61
G0 X26.39 Y142.61
;TYPE:SKIN
G1 F1200 X26.39 Y77.39 E74.1107
G1 X193.61 Y77.39 E79.67246
G1 X193.61 Y142.61 E81.84168
G1 X26.39 Y142.61 E87.40344
G1 F2700 E82.40344
G0 F6000 X26.11 Y142.61
G0 X73.024 Y142.79
G0 X73.024 Y144.665
G0 X74.799 Y134.873
G0 X72.964 Y134.873
G0 X73.024 Y136.94
G0 X72.744 Y137.19
G1 F2700 E87.40344
G1 F1200 X146.423 Y137.19 E89.85402
G1 X146.423 Y82.81 E91.6627
G1 X72.744 Y82.81 E94.11328
G1 X72.744 Y137.19 E95.92196
G1 F2700 E90.92196
G0 F6000 X73.024 Y136.94
G0 X72.964 Y134.873
G0 X74.799 Y134.873
G0 X72.938 Y144.665
G0 X72.938 Y142.79
G0 X27.049 Y142.89
G0 X27.049 Y142.449
G1 F2700 E95.92196
G1 F1200 X26.549 Y141.949 E95.94548
G0 F6000 X26.549 Y141.383
G1 F1200 X27.615 Y142.449 E95.99562
G0 F6000 X28.181 Y142.449
G1 F1200 X26.549 Y140.818 E96.07236
G0 F6000 X26.549 Y140.252
G1 F1200 X28.746 Y142.449 E96.1757
G0 F6000 X29.312 Y142.449
G1 F1200 X26.549 Y139.686 E96.30567
G0 F6000 X26.549 Y139.121
G1 F1200 X29.878 Y142.449 E96.46223
G0 F6000 X30.443 Y142.449
G1 F1200 X26.549 Y138.555 E96.64539
G0 F6000 X26.549 Y137.989
G1 F1200 X31.009 Y142.449 E96.85518
G0 F6000 X31.575 Y142.449
G1 F1200 X26.549 Y137.424 E97.09156
G0 F6000 X26.549 Y136.858
G1 F1200 X32.14 Y142.449 E97.35454
G0 F6000 X32.706 Y142.449
G1 F1200 X26.549 Y136.292 E97.64415
G0 F6000 X26.549 Y135.727
G1 F1200 X33.272 Y142.449 E97.96036
G0 F6000 X33.837 Y142.449
G1 F1200 X26.549 Y135.161 E98.30316
G0 F6000 X26.549 Y134.595
G1 F1200 X34.403 Y142.449 E98.67259
G0 F6000 X34.969 Y142.449
G1 F1200 X26.549 Y134.029 E99.06864
G0 F6000 X26.549 Y133.464
G1 F1200 X35.534 Y142.449 E99.49127
G0 F6000 X36.1 Y142.449
G1 F1200 X26.549 Y132.898 E99.94052
G0 F6000 X26.549 Y132.332
G1 F1200 X36.666 Y142.449 E100.41639
G0 F6000 X37.232 Y142.449
G1 F1200 X26.549 Y131.767 E100.91886
G0 F6000 X26.549 Y131.201
G1 F1200 X37.797 Y142.449 E101.44793
G0 F6000 X38.363 Y142.449
G1 F1200 X26.549 Y130.635 E102.00363
G0 F6000 X26.549 Y130.07
G1 F1200 X38.929 Y142.449 E102.58592
G0 F6000 X39.494 Y142.449
G1 F1200 X26.549 Y129.504 E103.19481
G0 F6000 X26.549 Y128.938
G1 F1200 X40.06 Y142.449 E103.83033
G0 F6000 X40.626 Y142.449
G1 F1200 X26.549 Y128.373 E104.49245
G0 F6000 X26.549 Y127.807
G1 F1200 X41.191 Y142.449 E105.18116
G0 F6000 X41.757 Y142.449
G1 F1200 X26.549 Y127.241 E105.8965
G0 F6000 X26.549 Y126.676
G1 F1200 X42.323 Y142.449 E106.63844
G0 F6000 X42.888 Y142.449
G1 F1200 X26.549 Y126.11 E107.40697
G0 F6000 X26.549 Y125.544
G1 F1200 X43.454 Y142.449 E108.20213
G0 F6000 X44.02 Y142.449
G1 F1200 X26.549 Y124.979 E109.02389
G0 F6000 X26.549 Y124.413
G1 F1200 X44.585 Y142.449 E109.87225
G0 F6000 X45.151 Y142.449
G1 F1200 X26.549 Y123.847 E110.74723
G0 F6000 X26.549 Y123.281
G1 F1200 X45.717 Y142.449 E111.64883
G0 F6000 X46.282 Y142.449
G1 F1200 X26.549 Y122.716 E112.57701
G0 F6000 X26.549 Y122.15
G1 F1200 X46.848 Y142.449 E113.53182
G0 F6000 X47.414 Y142.449
G1 F1200 X26.549 Y121.584 E114.51324
G0 F6000 X26.549 Y121.019
G1 F1200 X47.98 Y142.449 E115.52127
G0 F6000 X48.545 Y142.449
G1 F1200 X26.549 Y120.453 E116.55589
G0 F6000 X26.549 Y119.887
G1 F1200 X49.111 Y142.449 E117.61714
G0 F6000 X49.677 Y142.449
G1 F1200 X26.549 Y119.322 E118.70498
G0 F6000 X26.549 Y118.756
G1 F1200 X50.242 Y142.449 E119.81943
G0 F6000 X50.808 Y142.449
G1 F1200 X26.549 Y118.19 E120.9605
G0 F6000 X26.549 Y117.625
G1 F1200 X51.374 Y142.449 E122.12817
G0 F6000 X51.939 Y142.449
G1 F1200 X26.549 Y117.059 E123.32244
G0 F6000 X26.549 Y116.493
G1 F1200 X52.505 Y142.449 E124.54333
G0 F6000 X53.071 Y142.449
G1 F1200 X26.549 Y115.928 E125.79082
G0 F6000 X26.549 Y115.362
G1 F1200 X53.636 Y142.449 E127.06491
G0 F6000 X54.202 Y142.449
G1 F1200 X26.549 Y114.796 E128.36562
G0 F6000 X26.549 Y114.23
G1 F1200 X54.768 Y142.449 E129.69295
G0 F6000 X55.333 Y142.449
G1 F1200 X26.549 Y113.665 E131.04686
G0 F6000 X26.549 Y113.099
G1 F1200 X55.899 Y142.449 E132.4274
G0 F6000 X56.465 Y142.449
G1 F1200 X26.549 Y112.533 E133.83456
G0 F6000 X26.549 Y111.968
G1 F1200 X57.03 Y142.449 E135.26829
G0 F6000 X57.596 Y142.449
G1 F1200 X26.549 Y111.402 E136.72864
G0 F6000 X26.549 Y110.836
G1 F1200 X58.162 Y142.449 E138.21562
G0 F6000 X58.728 Y142.449
G1 F1200 X26.549 Y110.271 E139.7292
G0 F6000 X26.549 Y109.705
G1 F1200 X59.293 Y142.449 E141.26938
G0 F6000 X59.859 Y142.449
G1 F1200 X26.549 Y109.139 E142.83618
G0 F6000 X26.549 Y108.574
G1 F1200 X60.425 Y142.449 E144.42958
G0 F6000 X60.99 Y142.449
G1 F1200 X26.549 Y108.008 E146.04958
G0 F6000 X26.549 Y107.442
G1 F1200 X61.556 Y142.449 E147.6962
G0 F6000 X62.122 Y142.449
G1 F1200 X26.549 Y106.877 E149.36942
G0 F6000 X26.549 Y106.311
G1 F1200 X62.687 Y142.449 E151.06924
G0 F6000 X63.253 Y142.449
G1 F1200 X26.549 Y105.745 E152.79568
G0 F6000 X26.549 Y105.18
G1 F1200 X63.819 Y142.449 E154.54873
G0 F6000 X64.384 Y142.449
G1 F1200 X26.549 Y104.614 E156.32837
G0 F6000 X26.549 Y104.048
G1 F1200 X64.95 Y142.449 E158.13464
G0 F6000 X65.516 Y142.449
G1 F1200 X26.549 Y103.482 E159.96752
G0 F6000 X26.549 Y102.917
G1 F1200 X66.081 Y142.449 E161.82699
G0 F6000 X66.647 Y142.449
G1 F1200 X26.549 Y102.351 E163.71307
G0 F6000 X26.549 Y101.785
G1 F1200 X67.213 Y142.449 E165.62578
G0 F6000 X67.779 Y142.449
G1 F1200 X26.549 Y101.22 E167.56509
G0 F6000 X26.549 Y100.654
G1 F1200 X68.344 Y142.449 E169.531
G0 F6000 X68.91 Y142.449
G1 F1200 X26.549 Y100.088 E171.52353
G0 F6000 X26.549 Y99.523
G1 F1200 X69.476 Y142.449 E173.54266
G0 F6000 X70.041 Y142.449
G1 F1200 X26.549 Y98.957 E175.5884
G0 F6000 X26.549 Y98.391
G1 F1200 X70.607 Y142.449 E177.66075
G0 F6000 X71.173 Y142.449
G1 F1200 X26.549 Y97.826 E179.7597
G0 F6000 X26.549 Y97.26
G1 F1200 X71.738 Y142.449 E181.88525
G0 F6000 X72.304 Y142.449
G1 F1200 X26.549 Y96.694 E184.03743
G0 F6000 X26.549 Y96.129
G1 F1200 X72.87 Y142.449 E186.2162
G0 F6000 X73.435 Y142.449
G1 F1200 X26.549 Y95.563 E188.42158
G0 F6000 X26.549 Y94.997
G1 F1200 X74.001 Y142.449 E190.65357
G0 F6000 X74.567 Y142.449
G1 F1200 X26.549 Y94.431 E192.91219
G0 F6000 X26.549 Y93.866
G1 F1200 X75.132 Y142.449 E195.19739
G0 F6000 X75.698 Y142.449
G1 F1200 X26.549 Y93.3 E197.50921
G0 F6000 X26.549 Y92.734
G1 F1200 X76.264 Y142.449 E199.84765
G0 F6000 X76.829 Y142.449
G1 F1200 X26.549 Y92.169 E202.21266
G0 F6000 X26.549 Y91.603
G1 F1200 X77.395 Y142.449 E204.6043
G0 F6000 X77.961 Y142.449
G1 F1200 X72.861 Y137.349 E204.84419
G0 F6000 X72.584 Y137.072
G1 F1200 X26.549 Y91.037 E207.00954
G0 F6000 X26.549 Y90.472
G1 F1200 X72.584 Y136.506 E209.17486
G0 F6000 X72.584 Y135.941
G1 F1200 X26.549 Y89.906 E211.3402
G0 F6000 X26.549 Y89.34
G1 F1200 X72.584 Y135.375 E213.50555
G0 F6000 X72.584 Y134.809
G1 F1200 X26.549 Y88.775 E215.67087
G0 F6000 X26.549 Y88.209
G1 F1200 X72.584 Y134.244 E217.83622
G0 F6000 X72.584 Y133.678
G1 F1200 X26.549 Y87.643 E220.00156
G0 F6000 X26.549 Y87.078
G1 F1200 X72.584 Y133.112 E222.16688
G0 F6000 X72.584 Y132.547
G1 F1200 X26.549 Y86.512 E224.33223
G0 F6000 X26.549 Y85.946
G1 F1200 X72.584 Y131.981 E226.49757
G0 F6000 X72.584 Y131.415
G1 F1200 X26.549 Y85.381 E228.6629
G0 F6000 X26.549 Y84.815
G1 F1200 X72.584 Y130.85 E230.82824
G0 F6000 X72.584 Y130.284
G1 F1200 X26.549 Y84.249 E232.99359
G0 F6000 X26.549 Y83.683
G1 F1200 X72.584 Y129.718 E235.15893
G0 F6000 X72.584 Y129.153
G1 F1200 X26.549 Y83.118 E237.32428
G0 F6000 X26.549 Y82.552
G1 F1200 X72.584 Y128.587 E239.48962
G0 F6000 X72.584 Y128.021
G1 F1200 X26.549 Y81.986 E241.65497
G0 F6000 X26.549 Y81.421
G1 F1200 X72.584 Y127.455 E243.82029
G0 F6000 X72.584 Y126.89
G1 F1200 X26.549 Y80.855 E245.98563
G0 F6000 X26.549 Y80.289
G1 F1200 X72.584 Y126.324 E248.15098
G0 F6000 X72.584 Y125.758
G1 F1200 X26.549 Y79.724 E250.3163
G0 F6000 X26.549 Y79.158
G1 F1200 X72.584 Y125.193 E252.48165
G0 F6000 X72.584 Y124.627
G1 F1200 X26.549 Y78.592 E254.64699
G0 F6000 X26.549 Y78.027
G1 F1200 X72.584 Y124.061 E256.81231
G0 F6000 X72.584 Y123.496
G1 F1200 X26.638 Y77.549 E258.9735
G0 F6000 X27.203 Y77.549
G1 F1200 X72.584 Y122.93 E261.10808
G0 F6000 X72.584 Y122.364
G1 F1200 X27.769 Y77.549 E263.21604
G0 F6000 X28.335 Y77.549
G1 F1200 X72.584 Y121.799 E265.2974
G0 F6000 X72.584 Y121.233
G1 F1200 X28.9 Y77.549 E267.35216
G0 F6000 X29.466 Y77.549
G1 F1200 X72.584 Y120.667 E269.3803
G0 F6000 X72.584 Y120.102
G1 F1200 X30.032 Y77.549 E271.38184
G0 F6000 X30.597 Y77.549
G1 F1200 X72.584 Y119.536 E273.35678
G0 F6000 X72.584 Y118.97
G1 F1200 X31.163 Y77.549 E275.3051
G0 F6000 X31.729 Y77.549
G1 F1200 X72.584 Y118.405 E277.22681
G0 F6000 X72.584 Y117.839
G1 F1200 X32.294 Y77.549 E279.12193
G0 F6000 X32.86 Y77.549
G1 F1200 X72.584 Y117.273 E280.99043
G0 F6000 X72.584 Y116.707
G1 F1200 X33.426 Y77.549 E282.8323
G0 F6000 X33.992 Y77.549
G1 F1200 X72.584 Y116.142 E284.64757
G0 F6000 X72.584 Y115.576
G1 F1200 X34.557 Y77.549 E286.43625
G0 F6000 X35.123 Y77.549
G1 F1200 X72.584 Y115.01 E288.1983
G0 F6000 X72.584 Y114.445
G1 F1200 X35.689 Y77.549 E289.93375
G0 F6000 X36.254 Y77.549
G1 F1200 X72.584 Y113.879 E291.6426
G0 F6000 X72.584 Y113.313
G1 F1200 X36.82 Y77.549 E293.32483
G0 F6000 X37.386 Y77.549
G1 F1200 X72.584 Y112.748 E294.98046
G0 F6000 X72.584 Y112.182
G1 F1200 X37.951 Y77.549 E296.60949
G0 F6000 X38.517 Y77.549
G1 F1200 X72.584 Y111.616 E298.21189
G0 F6000 X72.584 Y111.051
G1 F1200 X39.083 Y77.549 E299.7877
G0 F6000 X39.648 Y77.549
G1 F1200 X72.584 Y110.485 E301.33691
G0 F6000 X72.584 Y109.919
G1 F1200 X40.214 Y77.549 E302.8595
G0 F6000 X40.78 Y77.549
G1 F1200 X72.584 Y109.354 E304.35548
G0 F6000 X72.584 Y108.788
G1 F1200 X41.345 Y77.549 E305.82487
G0 F6000 X41.911 Y77.549
G1 F1200 X72.584 Y108.222 E307.26763
G0 F6000 X72.584 Y107.657
G1 F1200 X42.477 Y77.549 E308.6838
G0 F6000 X43.043 Y77.549
G1 F1200 X72.584 Y107.091 E310.07334
G0 F6000 X72.584 Y106.525
G1 F1200 X43.608 Y77.549 E311.43628
G0 F6000 X44.174 Y77.549
G1 F1200 X72.584 Y105.959 E312.7726
G0 F6000 X72.584 Y105.394
G1 F1200 X44.74 Y77.549 E314.08232
G0 F6000 X45.305 Y77.549
G1 F1200 X72.584 Y104.828 E315.36544
G0 F6000 X72.584 Y104.262
G1 F1200 X45.871 Y77.549 E316.62194
G0 F6000 X46.437 Y77.549
G1 F1200 X72.584 Y103.697 E317.85184
G0 F6000 X72.584 Y103.131
G1 F1200 X47.002 Y77.549 E319.05514
G0 F6000 X47.568 Y77.549
G1 F1200 X72.584 Y102.565 E320.23181
G0 F6000 X72.584 Y102
G1 F1200 X48.134 Y77.549 E321.38189
G0 F6000 X48.699 Y77.549
G1 F1200 X72.584 Y101.434 E322.50537
G0 F6000 X72.584 Y100.868
G1 F1200 X49.265 Y77.549 E323.60222
G0 F6000 X49.831 Y77.549
G1 F1200 X72.584 Y100.303 E324.67248
G0 F6000 X72.584 Y99.737
G1 F1200 X50.396 Y77.549 E325.71613
G0 F6000 X50.962 Y77.549
G1 F1200 X72.584 Y99.171 E326.73316
G0 F6000 X72.584 Y98.606
G1 F1200 X51.528 Y77.549 E327.7236
G0 F6000 X52.093 Y77.549
G1 F1200 X72.584 Y98.04 E328.68743
G0 F6000 X72.584 Y97.474
G1 F1200 X52.659 Y77.549 E329.62464
G0 F6000 X53.225 Y77.549
G1 F1200 X72.584 Y96.908 E330.53523
G0 F6000 X72.584 Y96.343
G1 F1200 X53.791 Y77.549 E331.41922
G0 F6000 X54.356 Y77.549
G1 F1200 X72.584 Y95.777 E332.27661
G0 F6000 X72.584 Y95.211
G1 F1200 X54.922 Y77.549 E333.10737
G0 F6000 X55.488 Y77.549
G1 F1200 X72.584 Y94.646 E333.91154
G0 F6000 X72.584 Y94.08
G1 F1200 X56.053 Y77.549 E334.68911
G0 F6000 X56.619 Y77.549
G1 F1200 X72.584 Y93.514 E335.44005
G0 F6000 X72.584 Y92.949
G1 F1200 X57.185 Y77.549 E336.1644
G0 F6000 X57.75 Y77.549
G1 F1200 X72.584 Y92.383 E336.86214
G0 F6000 X72.584 Y91.817
G1 F1200 X58.316 Y77.549 E337.53327
G0 F6000 X58.882 Y77.549
G1 F1200 X72.584 Y91.252 E338.17779
G0 F6000 X72.584 Y90.686
G1 F1200 X59.447 Y77.549 E338.79571
G0 F6000 X60.013 Y77.549
G1 F1200 X72.584 Y90.12 E339.38702
G0 F6000 X72.584 Y89.555
G1 F1200 X60.579 Y77.549 E339.95172
G0 F6000 X61.144 Y77.549
G1 F1200 X72.584 Y88.989 E340.48982
G0 F6000 X72.584 Y88.423
G1 F1200 X61.71 Y77.549 E341.0013
G0 F6000 X62.276 Y77.549
G1 F1200 X72.584 Y87.858 E341.48618
G0 F6000 X72.584 Y87.292
G1 F1200 X62.841 Y77.549 E341.94446
G0 F6000 X63.407 Y77.549
G1 F1200 X72.584 Y86.726 E342.37612
G0 F6000 X72.584 Y86.16
G1 F1200 X63.973 Y77.549 E342.78115
G0 F6000 X64.539 Y77.549
G1 F1200 X72.584 Y85.595 E343.15959
G0 F6000 X72.584 Y85.029
G1 F1200 X65.104 Y77.549 E343.51143
G0 F6000 X65.67 Y77.549
G1 F1200 X72.584 Y84.463 E343.83664
G0 F6000 X72.584 Y83.898
G1 F1200 X66.236 Y77.549 E344.13525
G0 F6000 X66.801 Y77.549
G1 F1200 X72.584 Y83.332 E344.40727
G0 F6000 X72.584 Y82.766
G1 F1200 X67.367 Y77.549 E344.65266
G0 F6000 X67.933 Y77.549
G1 F1200 X73.032 Y82.649 E344.89252
G0 F6000 X73.598 Y82.649
G1 F1200 X68.498 Y77.549 E345.13241
G0 F6000 X69.064 Y77.549
G1 F1200 X74.164 Y82.649 E345.3723
G0 F6000 X74.729 Y82.649
G1 F1200 X69.63 Y77.549 E345.61217
G0 F6000 X70.195 Y77.549
G1 F1200 X75.295 Y82.649 E345.85205
G0 F6000 X75.861 Y82.649
G1 F1200 X70.761 Y77.549 E346.09194
G0 F6000 X71.327 Y77.549
G1 F1200 X76.426 Y82.649 E346.33181
G0 F6000 X76.992 Y82.649
G1 F1200 X71.892 Y77.549 E346.5717
G0 F6000 X72.458 Y77.549
G1 F1200 X77.558 Y82.649 E346.81158
G0 F6000 X78.123 Y82.649
G1 F1200 X73.024 Y77.549 E347.05145
G0 F6000 X73.59 Y77.549
G1 F1200 X78.689 Y82.649 E347.29131
G0 F6000 X79.255 Y82.649
G1 F1200 X74.155 Y77.549 E347.5312
G0 F6000 X74.721 Y77.549
G1 F1200 X79.821 Y82.649 E347.77109
G0 F6000 X80.386 Y82.649
G1 F1200 X75.287 Y77.549 E348.01096
G0 F6000 X75.852 Y77.549
G1 F1200 X80.952 Y82.649 E348.25084
G0 F6000 X81.518 Y82.649
G1 F1200 X76.418 Y77.549 E348.49073
G0 F6000 X76.984 Y77.549
G1 F1200 X82.083 Y82.649 E348.7306
G0 F6000 X82.649 Y82.649
G1 F1200 X77.549 Y77.549 E348.97049
G0 F6000 X78.115 Y77.549
G1 F1200 X83.215 Y82.649 E349.21037
G0 F6000 X83.78 Y82.649
G1 F1200 X78.681 Y77.549 E349.45024
G0 F6000 X79.246 Y77.549
G1 F1200 X84.346 Y82.649 E349.69013
G0 F6000 X84.912 Y82.649
G1 F1200 X79.812 Y77.549 E349.93002
G0 F6000 X80.378 Y77.549
G1 F1200 X85.477 Y82.649 E350.16988
G0 F6000 X86.043 Y82.649
G1 F1200 X80.943 Y77.549 E350.40977
G0 F6000 X81.509 Y77.549
G1 F1200 X86.609 Y82.649 E350.64966
G0 F6000 X87.174 Y82.649
G1 F1200 X82.075 Y77.549 E350.88952
G0 F6000 X82.64 Y77.549
G1 F1200 X87.74 Y82.649 E351.12941
G0 F6000 X88.306 Y82.649
G1 F1200 X83.206 Y77.549 E351.3693
G0 F6000 X83.772 Y77.549
